X:210
T:Moving Bogs (reel) 
B:CRE2.174 (Portaigh Chreathacha)
F:file ID: cre.2/210mov_b
N:I think second figure in measure B-1 should be /afdf/ (as it is in m.13)
R:reel
M:C
Q:180
K:D
D2FA d2Ad|d2fd ecAc|d2cd BAGF|GBAG FGEF|
D2FA d2Ad|d2fd ecAc|d2cd BAGF|1 EdAF Ddcd:|\
[2 GBAG FED||
|:c|defg fafd|gfga bgec|defg afdf|gbag fgec|
defg afdf|g2ba gfec|dcBA G2ED|1 CEAG FDD:|\
[2 CEAG FGEF||

%%%

